icons/cup-alt.svg

<svg xmlns="http://www.w3.org/2000/svg" viewBox="0 0 24 24" fill="currentColor">
  <path d="M2.25 8.5V8c0-2.11421 1.63579-3.75 3.75-3.75h8c1.8742 0 3.3724 1.2854 3.6884 3.05002C19.979 7.63568 21.75 9.61948 21.75 12c0 2.3836-1.7756 4.3695-4.0706 4.7013C17.3351 18.4009 15.7757 19.75 14 19.75H6c-2.11421 0-3.75-1.6358-3.75-3.75V8.5Zm1.5 6.25v-5.5H8c.00608 0 .07493.01059.15717.09283.08224.08224.09283.15109.09283.15717v5c0 .0061-.01059.0749-.09283.1572-.08224.0822-.15109.0928-.15717.0928H3.75Zm.0124 1.5c.11617 1.1588 1.03661 2 2.2376 2h8c1.1858 0 2.25-1.0642 2.25-2.25V8c0-1.28579-.9642-2.25-2.25-2.25H6c-1.20099 0-2.12143.84123-2.2376 2H8c.49392 0 .92507.23941 1.21783.53217S9.75 9.00608 9.75 9.5v5c0 .4939-.23941.9251-.53217 1.2178-.29276.2928-.72391.5322-1.21783.5322H3.7624ZM20.25 12c0-1.5279-1.0719-2.82046-2.5-3.16186v6.32376c1.4281-.3414 2.5-1.634 2.5-3.1619Z"/>
</svg>

<svg width="24" height="24" viewBox="0 0 24 24" fill="none" xmlns="http://www.w3.org/2000/svg">
<path fill-rule="evenodd" clip-rule="evenodd" d="M2.25 8.5V8C2.25 5.88579 3.88579 4.25 6 4.25H14C15.8742 4.25 17.3724 5.5354 17.6884 7.30002C19.979 7.63568 21.75 9.61948 21.75 12C21.75 14.3836 19.9744 16.3695 17.6794 16.7013C17.3351 18.4009 15.7757 19.75 14 19.75H6C3.88579 19.75 2.25 18.1142 2.25 16V15.5V8.5ZM3.75 14.75V9.25H8C8.00608 9.25 8.07493 9.26059 8.15717 9.34283C8.23941 9.42507 8.25 9.49392 8.25 9.5V14.5C8.25 14.5061 8.23941 14.5749 8.15717 14.6572C8.07493 14.7394 8.00608 14.75 8 14.75H3.75ZM3.7624 16.25C3.87857 17.4088 4.79901 18.25 6 18.25H14C15.1858 18.25 16.25 17.1858 16.25 16V8C16.25 6.71421 15.2858 5.75 14 5.75H6C4.79901 5.75 3.87857 6.59123 3.7624 7.75H8C8.49392 7.75 8.92507 7.98941 9.21783 8.28217C9.51059 8.57493 9.75 9.00608 9.75 9.5V14.5C9.75 14.9939 9.51059 15.4251 9.21783 15.7178C8.92507 16.0106 8.49392 16.25 8 16.25H3.7624ZM20.25 12C20.25 10.4721 19.1781 9.17954 17.75 8.83814V15.1619C19.1781 14.8205 20.25 13.5279 20.25 12Z" fill="black"/>
</svg>
